X:28
T: Szépen szólnak
O: Oroszlány (Komárom), Jankó Miklós (44), 1952.10
Q: "Tempo guisto" 1/4=96
M:4/4
L:1/4
K:D
F F B E | D/C/B,/^A,/ | C<B, B, z |
d d c<B | e<c A<F | D<E F z | 
d<d c<B | e<c A<F | D<E F z | 
F B F<E | D/C/B,/^A,/ | C<B, B, z |

